assets/icons/oxlint.svg

<svg width="16" height="16" version="1.1" viewBox="0 0 16 16" xmlns="http://www.w3.org/2000/svg">
 <path d="m8 1a2.5 2.5 0 0 0-2.5 2.5 2.5 2.5 0 0 0 1.75 2.3809v1.1191h-2.25v1h2.25v5.5c-1.7831-0.30665-3.3533-0.97746-4.25-2.5l1-1-3-2v2c0 2.2661 2.8805 5 7 5 2.7638 0.13034 7-1.779 7-5v-2l-3 2 1 1c-0.7547 1.6313-2.5912 2.091-4.25 2.5v-5.5h2.25v-1h-2.25v-1.1191a2.5 2.5 0 0 0 1.75-2.3809 2.5 2.5 0 0 0-2.5-2.5zm0 1.25a1.25 1.25 0 0 1 1.25 1.25 1.25 1.25 0 0 1-1.25 1.25 1.25 1.25 0 0 1-1.25-1.25 1.25 1.25 0 0 1 1.25-1.25z" fill="#ff7043" stroke-width=".73786"/>
</svg>

<svg xmlns="http://www.w3.org/2000/svg" viewBox="0 0 16 16"><path fill="#ff7043" d="M8 1a2.5 2.5 0 0 0-2.5 2.5 2.5 2.5 0 0 0 1.75 2.38V7H5v1h2.25v5.5C5.467 13.193 3.897 12.523 3 11l1-1-3-2v2c0 2.266 2.88 5 7 5 2.764.13 7-1.779 7-5V8l-3 2 1 1c-.755 1.631-2.591 2.091-4.25 2.5V8H11V7H8.75V5.88A2.5 2.5 0 0 0 10.5 3.5 2.5 2.5 0 0 0 8 1m0 1.25A1.25 1.25 0 0 1 9.25 3.5 1.25 1.25 0 0 1 8 4.75 1.25 1.25 0 0 1 6.75 3.5 1.25 1.25 0 0 1 8 2.25"/></svg>
